brandFactory_export/2.Regular/Parking _2Regular.svg

<?xml version="1.0" encoding="UTF-8"?>
<svg width="24px" height="24px" viewBox="0 0 24 24" version="1.1" xmlns="http://www.w3.org/2000/svg" xmlns:xlink="http://www.w3.org/1999/xlink">
    <title>2.Regular/Parking _2Regular</title>
    <g id="Symbols" stroke="none" stroke-width="1" fill="none" fill-rule="evenodd">
        <g id="2.Regular/Parking-_2Regular" fill="#5CB615" fill-rule="nonzero">
            <path d="M17.8638655,12.6319328 C18.8319328,11.5394958 19.3193277,9.88907563 19.3193277,7.72773109 C19.3193277,5.59327731 18.805042,4.02352941 17.7865546,3.06890756 C17.194958,2.50756303 16.3915966,2.09747899 15.3966387,1.84537815 C14.3378151,1.58319328 12.9462185,1.44537815 11.2621849,1.44537815 L4.45546218,1.44537815 L4.45546218,22.1781513 L8.02184874,22.1781513 L8.02184874,15.2470588 C8.01848739,14.8504202 8.34117647,14.5277311 8.73781513,14.5243697 L12.2571429,14.5243697 C13.6252101,14.5243697 14.7848739,14.3630252 15.7058824,14.0436975 C16.5865546,13.7411765 17.312605,13.2672269 17.8638655,12.6319328 Z M18.7613445,2.01344538 C20.0789916,3.25042017 20.7478992,5.17310924 20.7478992,7.72773109 C20.7478992,10.2554622 20.1361345,12.2285714 18.9327731,13.5932773 C18.2168067,14.4168067 17.2857143,15.0319328 16.1663866,15.4151261 C15.0941176,15.7848739 13.7798319,15.9731092 12.2571429,15.9731092 L9.45042017,15.9731092 L9.45042017,22.9008403 C9.45378151,23.297479 9.13445378,23.6201681 8.73781513,23.6235294 L3.74285714,23.6235294 C3.34621849,23.6201681 3.02689076,23.297479 3.03022581,22.9008403 L3.03022581,0.722689076 C3.02689076,0.32605042 3.34621849,0.00336134454 3.74285714,0 L11.2621849,0 C13.0638655,0 14.5697479,0.151260504 15.7394958,0.440336134 C16.9764706,0.752941176 17.9915966,1.28067227 18.7613445,2.01344538 L18.7613445,2.01344538 Z M13.6084034,10.1008403 C14.0420168,9.6605042 14.2638655,8.88403361 14.2638655,7.78823529 C14.2638655,6.78991597 14.0588235,6.08067227 13.6487395,5.68403361 C13.4504202,5.49915966 13.1613445,5.35462185 12.794958,5.26722689 C12.3579832,5.16302521 11.7764706,5.1092437 11.0739496,5.1092437 L9.45042017,5.1092437 L9.45042017,10.7327731 L11.2016807,10.7327731 C12.0991597,10.7327731 12.5764706,10.6521008 12.8151261,10.5815126 C13.1142857,10.4941176 13.3731092,10.3394958 13.6084034,10.1008403 Z M13.1243697,3.86218487 C13.7361345,4.01008403 14.2403361,4.26890756 14.6268908,4.63529412 C15.3327731,5.32773109 15.6890756,6.38655462 15.6890756,7.79159664 C15.6890756,9.28403361 15.3294118,10.4033613 14.6168067,11.1260504 C14.2266786,11.526525 13.7389558,11.8184635 13.2016807,11.9731092 C12.7210084,12.1109244 12.0655462,12.1781513 11.1983193,12.1781513 L8.73445378,12.1781513 C8.33781513,12.1747899 8.01848739,11.8521008 8.02182244,11.4554622 L8.02182244,4.38655462 C8.01848739,3.98991597 8.33781513,3.66722689 8.73445378,3.66386555 L11.0705882,3.66386555 C11.8907563,3.66386555 12.5798319,3.73109244 13.1243697,3.86218487 Z" id="Parking-_2Regular"></path>
        </g>
    </g>
</svg>

<svg width="24" height="24" viewBox="0 0 24 24" xmlns="http://www.w3.org/2000/svg"><path d="M17.864 12.632c.968-1.093 1.455-2.743 1.455-4.904 0-2.135-.514-3.704-1.532-4.66-.592-.56-1.395-.97-2.39-1.223-1.06-.262-2.45-.4-4.135-.4H4.455v20.733h3.567v-6.93a.72.72 0 01.716-.724h3.52c1.367 0 2.527-.161 3.448-.48.88-.303 1.607-.777 2.158-1.412zm.897-10.619c1.318 1.237 1.987 3.16 1.987 5.715 0 2.527-.612 4.5-1.815 5.865-.716.824-1.647 1.439-2.767 1.822-1.072.37-2.386.558-3.909.558H9.45v6.928a.717.717 0 01-.712.723H3.743a.717.717 0 01-.713-.723V.723A.717.717 0 013.743 0h7.52c1.8 0 3.307.151 4.476.44 1.237.313 2.253.84 3.022 1.573zm-5.153 8.088c.434-.44.656-1.217.656-2.313 0-.998-.205-1.707-.615-2.104-.199-.185-.488-.33-.854-.417-.437-.104-1.019-.158-1.721-.158H9.45v5.624h1.752c.897 0 1.374-.08 1.613-.151.3-.088.558-.243.793-.481zm-.484-6.239c.612.148 1.116.407 1.503.773.706.693 1.062 1.752 1.062 3.157 0 1.492-.36 2.611-1.072 3.334-.39.4-.878.692-1.415.847-.481.138-1.136.205-2.004.205H8.734a.717.717 0 01-.712-.723V4.387a.717.717 0 01.712-.723h2.337c.82 0 1.509.067 2.053.198z" fill="#5CB615" fill-rule="nonzero"/></svg>
